build/img/favicon.svg

<svg width="79" height="43" viewBox="0 0 79 43" fill="none" xmlns="http://www.w3.org/2000/svg">
<path d="M27.1034 26.0967C27.4895 25.7625 27.5946 25.2622 27.801 24.8346C28.1124 24.1976 28.4298 23.5567 28.7167 22.9168C29.0959 22.0655 29.5243 21.2378 29.8849 20.3777C30.2995 19.3879 30.8124 18.4383 31.2722 17.4661C32.184 15.5405 33.0801 13.6079 33.9978 11.6852C34.8074 9.98857 35.6789 8.32044 36.4472 6.60514C37.2333 4.85739 38.1067 3.15683 38.8849 1.4081C38.9684 1.22133 39.0657 1.04046 39.1797 0.807495C39.665 1.69218 40.0512 2.57687 40.4648 3.45467C40.9492 4.48386 41.5073 5.47962 41.9563 6.52355C42.7816 8.44233 43.7425 10.2962 44.6091 12.1963C45.3804 13.893 46.2058 15.565 47.0046 17.2499C47.7749 18.8757 48.5432 20.5029 49.3096 22.1314C49.7163 22.9895 50.132 23.8427 50.5387 24.7009C50.7274 25.099 50.914 25.4991 51.0801 25.907C51.0956 25.9527 51.1214 25.9941 51.1555 26.0282C51.1895 26.0623 51.231 26.0881 51.2766 26.1036C51.2709 26.185 51.2793 26.2668 51.3012 26.3454C51.7197 27.2104 52.1481 28.0696 52.5323 28.9523C53.0717 30.1948 53.729 31.3822 54.2724 32.6277C54.8265 33.8977 55.473 35.1284 56.0615 36.3856C56.8161 37.999 57.5845 39.6046 58.3666 41.2022C58.5935 41.6672 58.7095 42.2039 59.1202 42.5715C59.1202 42.6305 59.1202 42.6895 59.1202 42.7485H47.1411C47.0311 42.5578 46.924 42.3651 46.812 42.1764C46.0702 40.925 45.3234 39.6776 44.5856 38.4243C43.8241 37.1317 43.0764 35.8302 42.313 34.5386C41.3717 32.9462 40.4177 31.3606 39.4813 29.7662C39.4056 29.6364 39.3054 29.4713 39.2111 29.4595C39.0539 29.4438 38.9812 29.6335 38.9016 29.7711C38.2207 30.9507 37.5447 32.1303 36.8491 33.301C35.9118 34.8738 34.9263 36.422 34.0214 38.0193C33.1165 39.6167 32.1546 41.1649 31.2339 42.7534H19.2549L19.2608 42.5745C19.3079 42.5617 19.3836 42.5627 19.3973 42.5342C19.7471 41.8133 20.0933 41.0882 20.4359 40.3588C21.2055 38.735 21.9739 37.1111 22.7409 35.4872C23.1526 34.6162 23.5613 33.7443 23.975 32.8754C24.7443 31.2525 25.5401 29.6414 26.2751 28.0027C26.558 27.3687 26.9815 26.7966 27.1034 26.0967Z" fill="#45C1D4"/>
<path d="M59.1163 42.5764C58.7056 42.2088 58.5896 41.672 58.3627 41.2071C57.5832 39.6061 56.8149 38.0006 56.0577 36.3905C55.4681 35.1332 54.8226 33.9025 54.2685 32.6325C53.7251 31.3871 53.0678 30.1996 52.5284 28.9571C52.1442 28.0725 51.7158 27.2153 51.2973 26.3503C51.2754 26.2717 51.2671 26.1899 51.2727 26.1084C51.652 25.8902 51.9605 25.5865 52.2965 25.3093C53.7182 24.1297 55.1459 22.9442 56.5597 21.7538C58.2192 20.36 59.864 18.9494 61.5264 17.5604C63.5269 15.8894 65.542 14.233 67.5454 12.5639C69.1352 11.2389 70.7151 9.90298 72.3009 8.57398C73.9384 7.20305 75.576 5.83343 77.2135 4.46511C77.4385 4.27736 77.6783 4.10927 77.9013 3.92545C77.9917 3.85271 78.0428 3.66398 78.1961 3.77997C78.3494 3.89596 78.1813 4.02867 78.1391 4.11812C77.6763 5.0952 77.1959 6.06541 76.7125 7.03267C76.0247 8.40884 75.3241 9.77814 74.6432 11.1612C74.0262 12.4096 73.4328 13.6698 72.8206 14.9201C72.1181 16.3543 71.4058 17.7826 70.6994 19.2148C69.8943 20.8472 69.0906 22.4809 68.2882 24.1159C67.4583 25.8001 66.6258 27.483 65.7906 29.1646C65.1028 30.5574 64.3964 31.9454 63.7067 33.3403C62.8958 34.976 62.0888 36.6152 61.2857 38.2581C60.6058 39.652 59.9347 41.0498 59.2558 42.4447C59.2302 42.4968 59.1634 42.5302 59.1163 42.5764Z" fill="white"/>
<path d="M27.103 26.0966C26.9812 26.7965 26.5577 27.3686 26.2748 27.9987C25.5398 29.6373 24.744 31.2484 23.9746 32.8713C23.561 33.7403 23.1523 34.6122 22.7406 35.4831C21.9736 37.107 21.2052 38.7309 20.4356 40.3548C20.0917 41.0809 19.7455 41.806 19.397 42.5301C19.3833 42.5586 19.3076 42.5577 19.2605 42.5704C18.9077 42.1772 18.7181 41.6789 18.5236 41.212C18.0804 40.1503 17.5086 39.1546 17.0252 38.1136C16.3708 36.706 15.6418 35.3337 14.9511 33.9438C14.1297 32.2924 13.3109 30.639 12.4947 28.9836C11.7362 27.4443 10.9875 25.901 10.227 24.3636C9.46656 22.8262 8.69921 21.3046 7.94953 19.7711C7.19986 18.2377 6.46198 16.6914 5.71034 15.1511C4.9587 13.6107 4.21394 12.1097 3.45936 10.592C2.45521 8.58475 1.44615 6.57946 0.44593 4.57024C0.347677 4.38348 0.415471 4.1397 0.183594 3.95391C0.696476 3.85561 0.90379 4.25471 1.15532 4.46212C3.47213 6.36812 5.76831 8.29575 8.06056 10.2352C10.4923 12.2886 12.9398 14.3224 15.3755 16.371C17.7159 18.3369 20.076 20.2872 22.4183 22.2541C23.9432 23.534 25.473 24.8089 27.0077 26.0789C27.0293 26.0966 27.0706 26.0917 27.103 26.0966Z" fill="white"/>
</svg>

<svg width="79" height="43" fill="none" xmlns="http://www.w3.org/2000/svg"><path d="M27.103 26.097c.386-.335.492-.835.698-1.262.311-.637.629-1.278.916-1.918.379-.852.807-1.68 1.168-2.54.414-.99.927-1.939 1.387-2.91.912-1.926 1.808-3.86 2.726-5.782.81-1.696 1.68-3.365 2.45-5.08.785-1.748 1.659-3.448 2.437-5.197.083-.187.18-.368.295-.6.485.884.871 1.769 1.285 2.647.484 1.029 1.042 2.025 1.491 3.069.826 1.918 1.786 3.772 2.653 5.672.771 1.697 1.597 3.369 2.396 5.054.77 1.626 1.538 3.253 2.305 4.881.406.858.822 1.712 1.229 2.57.188.398.375.798.541 1.206a.314.314 0 00.197.197.715.715 0 00.024.241c.419.865.847 1.725 1.231 2.607.54 1.243 1.197 2.43 1.74 3.676.555 1.27 1.201 2.5 1.79 3.758a300.527 300.527 0 002.305 4.816c.227.465.343 1.002.753 1.37v.176H47.141c-.11-.19-.217-.383-.329-.572-.742-1.251-1.489-2.498-2.226-3.752-.762-1.292-1.51-2.594-2.273-3.885-.941-1.593-1.895-3.178-2.832-4.773-.075-.13-.176-.295-.27-.306-.157-.016-.23.174-.31.311-.68 1.18-1.356 2.36-2.052 3.53-.937 1.573-1.923 3.121-2.828 4.718-.904 1.598-1.866 3.146-2.787 4.734h-11.98l.007-.178c.047-.013.123-.012.136-.04.35-.722.696-1.447 1.039-2.176.77-1.624 1.538-3.248 2.305-4.872.412-.87.82-1.743 1.234-2.612.77-1.622 1.565-3.234 2.3-4.872.283-.634.707-1.206.828-1.906z" fill="#45C1D4"/><path d="M59.116 42.576c-.41-.367-.526-.904-.753-1.369a395.297 395.297 0 01-2.305-4.816c-.59-1.258-1.235-2.488-1.79-3.758-.543-1.246-1.2-2.433-1.74-3.676-.384-.884-.812-1.742-1.23-2.607a.718.718 0 01-.025-.242c.379-.218.688-.521 1.023-.799 1.422-1.18 2.85-2.365 4.264-3.555 1.66-1.394 3.304-2.805 4.966-4.194 2-1.67 4.016-3.327 6.02-4.996 1.59-1.325 3.17-2.661 4.755-3.99l4.912-4.109c.226-.188.465-.356.688-.54.09-.072.142-.261.295-.145.153.116-.015.249-.057.338a160.14 160.14 0 01-1.426 2.915c-.688 1.376-1.389 2.745-2.07 4.128-.617 1.249-1.21 2.509-1.822 3.76-.703 1.433-1.415 2.862-2.122 4.294-.805 1.632-1.608 3.266-2.41 4.9a1791.49 1791.49 0 01-2.498 5.05c-.688 1.392-1.395 2.78-2.084 4.175a984.017 984.017 0 00-2.421 4.918c-.68 1.394-1.351 2.792-2.03 4.187-.026.052-.093.085-.14.131zM27.103 26.097c-.122.7-.545 1.272-.828 1.902-.735 1.638-1.531 3.25-2.3 4.872-.414.87-.823 1.741-1.234 2.612-.767 1.624-1.536 3.248-2.305 4.872-.344.726-.69 1.451-1.039 2.175-.014.029-.09.028-.136.04-.353-.393-.543-.891-.737-1.358-.444-1.062-1.015-2.057-1.499-3.098-.654-1.408-1.383-2.78-2.074-4.17-.821-1.652-1.64-3.305-2.456-4.96-.759-1.54-1.507-3.083-2.268-4.62-.76-1.538-1.528-3.06-2.277-4.593-.75-1.533-1.488-3.08-2.24-4.62a679.296 679.296 0 00-2.25-4.559C2.454 8.585 1.445 6.579.445 4.57c-.098-.187-.03-.43-.262-.616.512-.098.72.3.971.508a652.02 652.02 0 016.906 5.773c2.431 2.054 4.879 4.087 7.315 6.136 2.34 1.966 4.7 3.916 7.042 5.883a857.198 857.198 0 004.59 3.825c.021.018.063.013.095.018z" fill="#fff"/></svg>
